!!!!SEGMENT: pl-kozmzk--mzk-m-26--001-007_stefani-jozef--msza-swieta-benedictus.krn
!!!cenid: 18xx:2951
!!!COM: Stefani, Józef
!!!COM-rismID: pe30024097
!!!CDT: 1800/04/16-1876/03/19
!!!CNT: Polish
!!!OPR: Msza Święta
!!!OTL: Benedictus
!!!OMV: 007
!!!PDT:
!!!AGN: Sacred; Mass
!!!YEC: Copyright 2022 Narodowy Instytut Fryderyka Chopina (https://polishscores.org)
!!!YEM: License CC-BY-4.0 (https://creativecommons.org/licenses/by/4.0)
!!!SMS-siglum: PL-KOZmzk
!!!SMS-shelfmark: mzk/m/26
!!!SMS-shelfwork: 001-007 M
!!!SMS-variant:
!!!SMS-altvar:
!!!NIFC-rismSourceID: 1001024881
!!!NIFC-rismChildID: 1001024881
!!!NIFC-islandoraID: pl-kozmzk:12693
!!!URL-pdf-islandora: https://repozytorium.nifc.pl/islandora/object/pl-kozmzk%3A12693/datastream/PDF/view
!!!URL-scan: https://polish.musicsources.pl/pl/lokalizacje/galeria/rekopisy/460 @EN{Scan on Polish Music Sources Website} @PL{Skany w portalu Dziedzictwo Muzyki Polskiej w otwartym dostępie}
!!!IIIF:
!!!ONB-nifc: UWAGA: Części mszy: 1. Kyrie, 2. Gloria, 3. Graduale, 4. Credo, 5. Offertorium, 6. Sanctus, 7. Benedictus, 8. Agnus Dei, 9. Dona nobis
!!!OMD: Andantino.
!!!AIN: 6 empty
!!!key:
**kern	**kern	**kern	**text	**dynam	**kern	**text	**dynam	**kern	**text	**kern	**text	**kern	**text
*group3	*group3	*group2	*	*	*group2	*	*	*group1	*	*group1	*	*group1	*
*part6	*part6	*part5	*	*	*part4	*	*	*part3	*	*part2	*	*part1	*
*staff7	*staff6	*staff5	*	*	*staff4	*	*	*staff3	*	*staff2	*	*staff1	*
*Iempty	*Iempty	*Iempty	*	*	*Iempty	*	*	*Iempty	*	*Iempty	*	*Iempty	*
*I"	*I"	*I"	*	*	*I"	*	*	*I"	*	*I"	*	*I"	*
*clefF4	*clefG2	*clefF4	*	*	*clefC4	*	*	*clefF4	*	*clefC4	*	*clefC4	*
*k[b-e-a-]	*k[b-e-a-]	*k[b-e-a-]	*	*	*k[b-e-a-]	*	*	*k[b-e-a-]	*	*k[b-e-a-]	*	*k[b-e-a-]	*
*E-:	*E-:	*E-:	*	*	*E-:	*	*	*E-:	*	*E-:	*	*E-:	*
*M4/4	*M4/4	*M4/4	*	*	*M4/4	*	*	*M4/4	*	*M4/4	*	*M4/4	*
*met(c)	*met(c)	*met(c)	*	*	*met(c)	*	*	*met(c)	*	*met(c)	*	*met(c)	*
*2\right	*2\right	*2\right	*	*	*2\right	*	*	*2\right	*	*2\right	*	*2\right	*
=1	=1	=1	=1	=1	=1	=1	=1	=1	=1	=1	=1	=1	=1
!	!	!	!	!	!	!	!	!	!	!	!	!LO:TX:a:i:t=dolce	!
!	!	!	!	!	!	!	!	!LO:TX:a:i:t=Solo	!	!LO:TX:a:i:t=Solo	!	!LO:TX:a:i:t=Solo	!
1ryy	1ryy	1ryy	.	.	1ryy	.	.	[2E-\	.	(2G/	Be-	(2B-\	.
.	.	.	.	.	.	.	.	4.E-\]	.	4.A-\)	.	4.c\)	.
.	.	.	.	.	.	.	.	8E-\	.	8c\	-ne-	8e-\	.
=2	=2	=2	=2	=2	=2	=2	=2	=2	=2	=2	=2	=2	=2
1ryy	1ryy	1ryy	.	.	1ryy	.	.	2E-\	.	(>4.G/	-dic-	(4.B-\	.
.	.	.	.	.	.	.	.	.	.	8E-/)	.	8G/)	.
.	.	.	.	.	.	.	.	4E-\	.	4G/	-tus	4B-\	.
.	.	.	.	.	.	.	.	4E-\	.	4G/	qui	4e-\	.
=3	=3	=3	=3	=3	=3	=3	=3	=3	=3	=3	=3	=3	=3
1ryy	1ryy	1ryy	.	.	1ryy	.	.	(4.BB-/	.	2F/	ve-	(4e-\	.
.	.	.	.	.	.	.	.	.	.	.	.	8d\L	.
.	.	.	.	.	.	.	.	8C/)	.	.	.	8c\J)	.
.	.	.	.	.	.	.	.	4D\	.	4F/	-nit	4B-\	.
.	.	.	.	.	.	.	.	4D\	.	4F/	in	4A-\	.
=4	=4	=4	=4	=4	=4	=4	=4	=4	=4	=4	=4	=4	=4
1ryy	1ryy	1ryy	.	.	1ryy	.	.	4.E-\	.	(8E-/L	no-	(8G/L	.
.	.	.	.	.	.	.	.	.	.	8A-/	.	8c/	.
.	.	.	.	.	.	.	.	.	.	8G/J)	.	8B-/J)	.
.	.	.	.	.	.	.	.	8E-\	.	8E-/	-mi-	8G/	.
.	.	.	.	.	.	.	.	4BB-/	.	(8D/L	-ne	(8F/L	.
.	.	.	.	.	.	.	.	.	.	8E-/	.	8G/	.
.	.	.	.	.	.	.	.	4r	.	8F/J)	.	8A-/J)	.
.	.	.	.	.	.	.	.	.	.	8F#X/	in	8An/	.
!!LO:LB:g=original
=5	=5	=5	=5	=5	=5	=5	=5	=5	=5	=5	=5	=5	=5
1ryy	1ryy	1ryy	.	.	1ryy	.	.	4r	.	2G\	no-	2B-\	.
.	.	.	.	.	.	.	.	4E-\	.	.	.	.	.
.	.	.	.	.	.	.	.	4E-\	.	4.A-\	-mi-	4.c\	.
.	.	.	.	.	.	.	.	8E-\	.	.	.	.	.
.	.	.	.	.	.	.	.	8E-\	.	8c\	-ne	8e-\	.
=6	=6	=6	=6	=6	=6	=6	=6	=6	=6	=6	=6	=6	=6
1ryy	1ryy	1ryy	.	.	1ryy	.	.	4.E-\	.	4.G/	Do-	4.B-\	.
.	.	.	.	.	.	.	.	8E-\	.	8E-/	-mi-	8G/	.
.	.	.	.	.	.	.	.	4E-\	.	4G/	-ni	4B-\	.
.	.	.	.	.	.	.	.	4E-\	.	4G/	in	4c\	.
=7	=7	=7	=7	=7	=7	=7	=7	=7	=7	=7	=7	=7	=7
1ryy	1ryy	1ryy	.	.	1ryy	.	.	4F\	.	(8.B-\L	no-	(8.d\L	.
.	.	.	.	.	.	.	.	.	.	32c\LL	.	32e-\LL	.
.	.	.	.	.	.	.	.	.	.	32B-\JJJ)	.	32d\JJJ)	.
.	.	.	.	.	.	.	.	8F\	.	8A-\	-mi-	8c\	.
.	.	.	.	.	.	.	.	8F\	.	8B-\	-ne	8d\	.
.	.	.	.	.	.	.	.	.	.	8qd/	.	8qf/	.
.	.	.	.	.	.	.	.	4.F\	.	4.c\	Do-	4.e-\	.
.	.	.	.	.	.	.	.	8F\	.	8An\	-mi-	8c\	.
=8	=8	=8	=8	=8	=8	=8	=8	=8	=8	=8	=8	=8	=8
1ryy	1ryy	1ryy	.	.	1ryy	.	.	4BB-/	.	4B-\	-ni	4d\	.
.	.	.	.	.	.	.	.	8.D\	Do-	4r	.	4r	.
.	.	.	.	.	.	.	.	16F\	-mi-	.	.	.	.
.	.	.	.	.	.	.	.	4BB-/	-ni	4r	.	4r	.
.	.	.	.	.	.	.	.	8.BB-/	.	8.B-\	Be-	8.d\	.
.	.	.	.	.	.	.	.	16BB-/	.	16A-X\	-ne-	16f\	.
!!LO:LB:g=original
=9	=9	=9	=9	=9	=9	=9	=9	=9	=9	=9	=9	=9	=9
1ryy	1ryy	1ryy	.	.	1ryy	.	.	4BB-/	.	4G/	-dic-	4e-\	.
.	.	.	.	.	.	.	.	2BB-/	.	2G/	-tus	2B-\	.
.	.	.	.	.	.	.	.	4BB-/	.	8.A-/L	qui	(8.f\L	.
.	.	.	.	.	.	.	.	.	.	16F/Jk	.	16d\Jk)	.
=10	=10	=10	=10	=10	=10	=10	=10	=10	=10	=10	=10	=10	=10
1ryy	1ryy	1ryy	.	.	1ryy	.	.	4E-\	.	4G/	ve-	4e-\	.
.	.	.	.	.	.	.	.	8.E-\	.	8.G/	-nit	8.B-\	.
.	.	.	.	.	.	.	.	16E-\	.	16e-\	in	16g\	.
.	.	.	.	.	.	.	.	4E-\	.	8d\L	no-	8f\L	.
.	.	.	.	.	.	.	.	.	.	8c\J	.	8e-\J	.
.	.	.	.	.	.	.	.	8.E-\	.	8.B-\	-mi-	8.d\	.
.	.	.	.	.	.	.	.	16E-\	.	16A-\	-ne	16c\	.
=11	=11	=11	=11	=11	=11	=11	=11	=11	=11	=11	=11	=11	=11
1ryy	1ryy	1ryy	.	.	1ryy	.	.	2.E-\	.	(>4..G/	Do-	(4..B-\	.
.	.	.	.	.	.	.	.	.	.	32F/LLL	.	32A-/LLL	.
.	.	.	.	.	.	.	.	.	.	32E-/JJJ)	.	32G/JJJ)	.
.	.	.	.	.	.	.	.	.	.	4F/	.	4A-\	.
.	.	.	.	.	.	.	.	4D\	.	4F/	-mi-	4B-\	.
=12	=12	=12	=12	=12	=12	=12	=12	=12	=12	=12	=12	=12	=12
1ryy	1ryy	1ryy	.	.	1ryy	.	.	2E-\	.	2E-/	-ni	2G/	.
.	.	.	.	.	.	.	.	2C^>/	.	2E-^>/	in	(<2An^<tt\	.
.	.	.	.	.	.	.	.	.	.	.	.	16qqG/LL	.
.	.	.	.	.	.	.	.	.	.	.	.	16qqA/JJ)	.
!!LO:LB:g=original
=13	=13	=13	=13	=13	=13	=13	=13	=13	=13	=13	=13	=13	=13
1r	1r	1r	.	.	1r	.	.	4D\	.	4F/	no-	(8B-\L	.
.	.	.	.	.	.	.	.	.	.	.	.	8F\J)	.
.	.	.	.	.	.	.	.	8D\	.	8F/	-mi-	8B-\	.
.	.	.	.	.	.	.	.	8E-\	.	8G/	-ne	8c\	.
!	!	!	!	!	!LO:TX:b:i:t=Tutti	!	!	!	!	!	!	!	!
.	.	.	.	.	.	.	.	[4F\	.	(8B-\L	Do-	(8d\L	.
.	.	.	.	.	.	.	.	.	.	16A-\L	.	16c\L	.
.	.	.	.	.	.	.	.	.	.	16B-\JJ)	.	16d\JJ)	.
.	.	.	.	.	.	.	.	.	.	8qd/	.	8qf/	.
.	.	.	.	.	.	.	.	8.F\]	.	8.c\	.	8.e-\	.
.	.	.	.	.	.	.	.	16F\	.	16An\	-mi-	16c\	.
=14	=14	=14	=14	=14	=14	=14	=14	=14	=14	=14	=14	=14	=14
4r	4r	4r	.	.	4r	.	.	4B-\	.	4B-\	-ni	4B-\	.
2.D 2.DD/	[2.dd [2.d/	8.D\	.	f	8.d\	Be-	f	4r	.	4r	.	4r	.
.	.	16D\	.	.	16d\	-ne-	.	.	.	.	.	.	.
.	.	2D\	.	.	2d\	-dic-	.	2r	.	2r	.	2r	.
=15	=15	=15	=15	=15	=15	=15	=15	=15	=15	=15	=15	=15	=15
*^	*	*	*	*	*	*	*	*	*	*	*	*	*
4D 4DD/	4ryy	4dd] 4d/]	4D\	.	.	4D/	-tus	.	4r	.	4r	.	4r	.
4d 4B-/	[2.D\	(4dd 4b-\	4r	.	.	4r	.	.	8.D\	.	8.B-\	Be-	8.d\	.
.	.	.	.	.	.	.	.	.	16D\	.	16B-\	-ne-	16d\	.
4c 4An/	.	4cc 4an\	2r	.	.	2r	.	.	4D\	.	4An\	-di-	4c\	.
4B- 4G/	.	4b- 4g\)	.	.	.	.	.	.	8.D\	.	8.G/	-ctus	8.B-\	.
.	.	.	.	.	.	.	.	.	16D\	.	16G/	qui	16B-\	.
!!LO:PB:g=original
=16	=16	=16	=16	=16	=16	=16	=16	=16	=16	=16	=16	=16	=16	=16
4An 4F#X/	2.D\]	4an 4f#X/	2r	.	.	2r	.	.	2D\	.	(4F#X/	ve-	(4An\	.
4B- 4G/	.	4b- 4g/	.	.	.	.	.	.	.	.	4Gn/)	.	4B-\)	.
4A 4F#/	.	4a 4f#/	4r	.	.	4r	.	.	4D\	.	4F#/	-nit	4A\	.
4D 4DD/	4ryy	4dd 4d/	4D\	.	.	4d\	in	.	4r	.	4r	.	4r	.
=17	=17	=17	=17	=17	=17	=17	=17	=17	=17	=17	=17	=17	=17	=17
2.E- 2.EE-/	2.ryy	2.ee- 2.e-/	4.E-\	.	.	4.e-\	no-	.	2r	.	2r	.	2r	.
.	.	.	8E-\	.	.	8E-/	-mi-	.	.	.	.	.	.	.
.	.	.	4E-\	.	.	4E-/	-ne	.	4r	.	4r	.	4r	.
4e-X 4c/	[4E-X\	4ee-X 4cc\	4r	.	.	4r	.	.	4E-X\	.	4c\	in	4e-\	.
=18	=18	=18	=18	=18	=18	=18	=18	=18	=18	=18	=18	=18	=18	=18
4d 4B-/	1E-]	4dd 4b-/	1r	.	.	1r	.	.	4E-\	.	4B-\	no-	4d\	.
4c 4A-X/	.	4cc 4a-X/	.	.	.	.	.	.	8.E-\	.	8.A-X\	-mi-	8.c\	.
.	.	.	.	.	.	.	.	.	16E-\	.	16A-\	-ne	16c\	.
4B- 4G/	.	4b- 4g/	.	.	.	.	.	.	4E-\	.	4G/	do-	4B-\	.
4c 4A-/	.	4cc 4a-/	.	.	.	.	.	.	4E-\	.	4A-/	-mi-	4c\	.
=19	=19	=19	=19	=19	=19	=19	=19	=19	=19	=19	=19	=19	=19	=19
4B- 4G/	4E-\	4b- 4g/	4r	.	.	4r	.	.	4E-\	.	4G/	-ni	4B-\	.
4E- 4EE-/	2.ryy	4ee- 4e-/	8.E-\	.	.	8.e-\	Be-	.	4r	.	4r	.	4r	.
.	.	.	16E-\	.	.	16e-\	-ne-	.	.	.	.	.	.	.
2En 2EEn/	.	2een 2en/	2En\	.	.	2en\	-dic-	.	2r	.	2r	.	2r	.
!!LO:LB:g=original
=20	=20	=20	=20	=20	=20	=20	=20	=20	=20	=20	=20	=20	=20	=20
4En 4EEn/	4ryy	4een 4en/	4En\	.	.	4En/	-tus	.	4r	.	4r	.	4r	.
4en 4c/	2.E\	4ee 4cc\	4r	.	.	4r	.	.	8.En\	.	8.c\	Be-	8.en\	.
.	.	.	.	.	.	.	.	.	16E\	.	16c\	-ne-	16e\	.
4d 4Bn/	.	4ee 4bn\	2r	.	.	2r	.	.	4E\	.	4Bn\	-di-	4d\	.
4c 4An/	.	4cc 4an\	.	.	.	.	.	.	8.E\	.	8.An\	-ctus	8.c\	.
.	.	.	.	.	.	.	.	.	16E\	.	16A\	qui	16c\	.
=21	=21	=21	=21	=21	=21	=21	=21	=21	=21	=21	=21	=21	=21	=21
4Bn 4G#X/	[2En\	4bn 4g#X/	2r	.	.	2r	.	.	2En\	.	(4G#X/	ve-	(4Bn\	.
4c 4An/	.	4cc 4an/	.	.	.	.	.	.	.	.	4An/)	.	4c\)	.
4B 4G#/	4E\]	4b 4g#/	4r	.	.	4r	.	.	4E\	.	4G#/	-nit	4B\	.
4En 4EEn/	4ryy	4een 4en/	4En\	.	.	4en\	in	.	4r	.	4r	.	4r	.
=22	=22	=22	=22	=22	=22	=22	=22	=22	=22	=22	=22	=22	=22	=22
2.F 2.FF/	2.ryy	2.ff/ 2.f/	4..F\	.	.	4..f\	no-	.	2r	.	2r	.	2r	.
.	.	.	16F\	.	.	16F/	-mi-	.	.	.	.	.	.	.
.	.	.	4F\	.	.	4F/	-ne	.	4r	.	4r	.	4r	.
4f 4d/	4F\	4ff 4dd\	4r	.	.	4r	.	.	4F\	.	4d\	in	4f\	.
!!LO:PB:g=original
=23	=23	=23	=23	=23	=23	=23	=23	=23	=23	=23	=23	=23	=23	=23
4e- 4c/	1F	4ee- 4cc\	1r	.	.	1r	.	.	4E-\	.	4c\	no-	4e-\	.
4d 4B-/	.	4dd 4b-\	.	.	.	.	.	.	8.F\	.	8.B-\	-mi-	8.d\	.
.	.	.	.	.	.	.	.	.	16F\	.	16B-\	-ne	16d\	.
4c 4An/	.	4cc 4an\	.	.	.	.	.	.	4F\	.	4An\	Do-	4c\	.
4d 4B-/	.	4dd 4b-\	.	.	.	.	.	.	4F\	.	4B-\	-mi-	4d\	.
*v	*v	*	*	*	*	*	*	*	*	*	*	*	*	*
=24	=24	=24	=24	=24	=24	=24	=24	=24	=24	=24	=24	=24	=24
*	*^	*	*	*	*	*	*	*	*	*	*	*	*
2c 2An 2F\	2cc 2an 2f/	2.ryy	1r	.	.	1r	.	.	2.F\	.	2.An\	-ni	2c\	.
4r	4r	.	.	.	.	.	.	.	.	.	.	.	4c#X\	.
4B- 4BB-\	8.dd/L	8.b-\L	.	.	.	.	.	.	8.BB-/	.	8.B-\	Be-	8.d\	.
.	16ff/Jk	16a-X\Jk	.	.	.	.	.	.	16BB-/	.	16A-X\	-ne-	16f\	.
*	*v	*v	*	*	*	*	*	*	*	*	*	*	*	*
=25	=25	=25	=25	=25	=25	=25	=25	=25	=25	=25	=25	=25	=25
*	*	*	*	*	*^	*	*	*	*	*	*	*	*
1B- 1BB-	4ff 4a-/	4r	.	.	4r	4ryy	.	.	4BB-/	.	4G/	-di-	4f\	.
.	2ee- 2g/	8.BB-/	.	.	4ryy	8.G 8.E-/	Be-	.	2BB-/	.	2G/	-ctus	2e-\	.
.	.	16BB-/k	.	.	.	16Gk 16E-/	-ne-	.	.	.	.	.	.	.
!	!	!	!	!	!	!LO:TX:t=P:problem=błędne wyświetlanie łuku	!	!	!	!	!	!	!	!
.	.	2BB-/	.	.	2B-/	(>4G\	-di-	.	.	.	.	.	.	.
.	8.ffL 8.a-/	.	.	.	.	4F\)	-ctus	.	4BB-/	.	8.A-/L	qui	(8.f\L	.
.	16ddJk 16f/	.	.	.	.	.	.	.	.	.	16F/Jk	.	16d\Jk)	.
=26	=26	=26	=26	=26	=26	=26	=26	=26	=26	=26	=26	=26	=26	=26
[4B- 4E-\	4ee- 4g/	4.E-\	.	.	4.B-/	4.G\	.	.	4E-\	.	4G/	ve-	4e-\	.
8B-] 8E-\	8b- 8g/	.	.	.	.	.	.	.	8.E-\	.	8.G/	-nit	8.B-\	.
8r	8r	8r	.	.	8r	8ryy	.	.	.	.	.	.	.	.
.	.	.	.	.	.	.	.	.	16E-\	.	16e-\	in	16g\	.
2r	2r	2r	.	.	2r	2ryy	.	.	4E-\	.	(8d\L	no-	(8f\L	.
.	.	.	.	.	.	.	.	.	.	.	8c\J)	.	8e-\J)	.
.	.	.	.	.	.	.	.	.	8.E-\	.	8.B-\	-mi-	8.d\	.
.	.	.	.	.	.	.	.	.	16E-\	.	16A-\	-ne	16c\	.
*	*	*	*	*	*v	*v	*	*	*	*	*	*	*	*
!!LO:LB:g=original
=27	=27	=27	=27	=27	=27	=27	=27	=27	=27	=27	=27	=27	=27
1r	1r	1r	.	.	1r	.	.	2.E-\	.	(4.G/	Do-	(4.B-/	.
.	.	.	.	.	.	.	.	.	.	16F/LL	.	16A-/LL	.
.	.	.	.	.	.	.	.	.	.	16E-/JJ)	.	16G/JJ)	.
.	.	.	.	.	.	.	.	.	.	4F/	.	4A-/	.
.	.	.	.	.	.	.	.	4D\	.	4F/	-mi-	4B-\	.
=28	=28	=28	=28	=28	=28	=28	=28	=28	=28	=28	=28	=28	=28
2r	2r	2r	.	.	2r	.	.	2E-\	.	2E-/	-ni	2G/	.
2A-/ 2AA-/	2cc 2a- 2e-/	2E- 2AA-/	.	.	2c 2A-\	in	.	2AA-^>/	.	2A-^\	in	2c^\	.
=29	=29	=29	=29	=29	=29	=29	=29	=29	=29	=29	=29	=29	=29
4B- 4BB-\	4b- 4g 4e-/	16E- 16BB-/	.	.	16B- 16G\	no-	.	4BB-/	.	8G/L	no-	(8B-\L	.
.	.	16E- 16BB-/	.	.	16B- 16G\	-mi-	.	.	.	.	.	.	.
.	.	8E- 8BB-/	.	.	8B- 8G\	-ne	.	.	.	8B-/J	.	8g\J)	.
4r	4r	4r	.	.	4r	.	.	8BB-/	.	8A-/	-mi-	8f\	.
.	.	.	.	.	.	.	.	8BB-/	.	8G/	-ne	8e-\	.
4r	4r	2r	.	.	2r	.	.	4.BB-/	.	4.F/	Do-	(8e-\L	.
.	.	.	.	.	.	.	.	.	.	.	.	8d\	.
8r	8r	.	.	.	.	.	.	.	.	.	.	8c\J)	.
8Bn 8BBn\	8dd 8a- 8f/	.	.	.	.	.	.	8BBn/	.	8A-/	-mi-	8d\	.
=30	=30	=30	=30	=30	=30	=30	=30	=30	=30	=30	=30	=30	=30
4c 4C\	4ee- 4g 4e-/	2r	.	.	2r	.	.	2C/	.	2G\	-ni	2e-\	.
4r	4r	.	.	.	.	.	.	.	.	.	.	.	.
!LO:N:vis=2.	!	!	!	!	!	!	!	!	!	!	!	!	!
2A- 2AA-/	2cc 2a- 2e-/	2E- 2AA-^>/	.	.	2c^ 2A-\	in	.	2AA-^>/	.	2A-^\	in	2c^\	.
=31	=31	=31	=31	=31	=31	=31	=31	=31	=31	=31	=31	=31	=31
*	*	*	*	*	*^	*	*	*	*	*	*	*	*
4B- 4BB-\	4b- 4g 4e-/	4E- 4BB-/	.	.	4B- 4G\	2ryy	no-	.	4BB-/	.	4G/	no-	8B-\L	.
.	.	.	.	.	.	.	.	.	.	.	.	.	8e-\J	.
4r	4r	8.E- 8.BB-/	.	.	8.B- 8.G\	.	-mi-	.	8.BB-/	.	8.B-/	-mi-	8.g\	.
.	.	16E- 16BB-/	.	.	16B- 16G\	.	-ne	.	16BB-/	.	16G/	-ne	16e-\	.
4B- 4F 4BB-\	4dd 4a- 4f/	4.F 4.BB-;/	.	.	4.d;/	4.F\	Do-	.	4.BB-;/	.	4.A-;/	Do-	4.f;\	.
4r;	4r;	.	.	.	.	.	.	.	.	.	.	.	.	.
.	.	8F 8BB-/	.	.	8B-/	8A-\	-mi	.	8BB-/	.	8F/	-mi-	8d\	.
*	*	*	*	*	*v	*v	*	*	*	*	*	*	*	*
!!LO:PB:g=original
=32||	=32||	=32||	=32||	=32||	=32||	=32||	=32||	=32||	=32||	=32||	=32||	=32||	=32||
*M6/8	*M6/8	*M6/8	*	*	*M6/8	*	*	*M6/8	*	*M6/8	*	*M6/8	*
!!!OMD: Allegretto.
4r	4r	4r	.	.	2.r	.	.	4E-\	ni	4G/	-ni	4e-\	ni
8E-\	8e-/	8E-\	O-	.	.	.	.	8E-\	O-	8r	.	8r	.
4G\	4g/	4G\	-san-	.	.	.	.	4G\	-san-	4r	.	4r	.
8E-\	8e-/	8E-\	-na	.	.	.	.	8E-\	-na	8r	.	8r	.
=33	=33	=33	=33	=33	=33	=33	=33	=33	=33	=33	=33	=33	=33
4.B-\	4.b-/	4B-\	in	.	2.r	.	.	4B-\	in	2.r	.	2.r	.
.	.	8B-\	ex	.	.	.	.	8B-\	ex-	.	.	.	.
8G\L	8g/L	(8G\L	cel-	.	.	.	.	(8G\L	-cel-	.	.	.	.
8F\	8f/	8F\	.	.	.	.	.	8F\	.	.	.	.	.
8E-\J	8e-/J	8E-\J)	.	.	.	.	.	8E-\J)	.	.	.	.	.
=34	=34	=34	=34	=34	=34	=34	=34	=34	=34	=34	=34	=34	=34
!	!	!	!	!	!	!	!	!	!	!LO:TX:a:i:t=Tutti Chór	!	!	!
4.B-\	4.b-\	4.B-\	-sis	.	4r	.	.	4B-\	-sis	2.ryy	.	2.ryy	.
.	.	.	.	.	8r	.	.	2ryy	.	.	.	.	.
4.B- 4.F 4.BB-\	4.ff 4.dd 4.b-\	4.B-\	O-	.	4.f 4.d\	.	.	.	.	.	.	.	.
=35	=35	=35	=35	=35	=35	=35	=35	=35	=35	=35	=35	=35	=35
4.B- 4.G 4.E-\	4gg 4ee- 4b-\	4E-\	-san-	.	4g 4e-\	.	.	2.ryy	.	2.ryy	.	2.ryy	.
.	8ee- 8b- 8g\	8E-\	-na	.	8e- 8G\	.	.	.	.	.	.	.	.
8B-L 8G 8E-\	8ee-L 8b- 8g\	8E-/L	in	.	(8e-L 8G\	.	.	.	.	.	.	.	.
8B- 8F 8BB-\	8ff 8dd 8b-\	8BB-/J	.	.	8fJ 8B-\)	.	.	.	.	.	.	.	.
8B-J 8G 8E-\	8ggJ 8ee- 8b-\	8E-\	ex	.	8g 8B-\	.	.	.	.	.	.	.	.
!!LO:LB:g=original
=36	=36	=36	=36	=36	=36	=36	=36	=36	=36	=36	=36	=36	=36
[4.B- [4.F [>4.BB-\	[4.ff [4.dd [>4.b-\	4.B- 4.BB-\	.	.	4.f 4.d\	cel-	.	2.ryy	.	2.ryy	.	2.ryy	.
4B-] 4F] 4BB-\]	4ff] 4dd] 4b-\]	8B- 8BB-\	.	.	8f 8d\	-sis	.	.	.	.	.	.	.
.	.	8B-\	.	.	8f 8d\	in	.	.	.	.	.	.	.
8B- 8F 8BB-\	8ff 8dd 8b-\	8B-\	.	.	8f 8d\	ex-	.	.	.	.	.	.	.
=37	=37	=37	=37	=37	=37	=37	=37	=37	=37	=37	=37	=37	=37
[4.B- [4.G [>4.E-\	4gg 4ee- 4b-\	4E-\	.	.	4g 4e-\	-cel-	.	2.ryy	.	2.ryy	.	2.ryy	.
.	8ee- 8b- 8g\	8E-\	.	.	8e- 8G\	-sis	.	.	.	.	.	.	.
8B-]L 8G] 8E-\]	8ee-L 8b- 8g\	(8E-/L	.	.	(8e-L 8G\	De-	.	.	.	.	.	.	.
8B- 8F 8BB-\	8ff 8dd 8b-\	8BB-/	.	.	8f 8B-\	.	.	.	.	.	.	.	.
8B-J 8G 8E-\	8ggJ 8ee- 8b-\	8E-/J)	.	.	8gJ 8B-\)	.	.	.	.	.	.	.	.
=38	=38	=38	=38	=38	=38	=38	=38	=38	=38	=38	=38	=38	=38
4B- 4F 4BB-\	4ff 4dd 4b-\	4B- 4BB-\	.	.	4f 4d\	-o	.	2.ryy	.	2.ryy	.	2.ryy	.
8r	8r	8r	.	.	8r	.	.	.	.	.	.	.	.
4.B- 4.BB-\	4.b-\	4.BB-/	.	.	4.B-\	O-	.	.	.	.	.	.	.
=39	=39	=39	=39	=39	=39	=39	=39	=39	=39	=39	=39	=39	=39
4e- 4E-\	4ee-\	4E-\	.	.	4e-\	-san-	.	2.ryy	.	2.ryy	.	2.ryy	.
8d 8D\	8dd\	8D\	.	.	8d\	-na	.	.	.	.	.	.	.
8cL 8C\	8cc\L	(8C/L	.	.	(8c\L	in	.	.	.	.	.	.	.
8B- 8BB-\	8b-\	8BB-/J)	.	.	8B-\J)	.	.	.	.	.	.	.	.
8A-J 8AA-\	8a-\J	8AA-/	.	.	8A-\	ex-	.	.	.	.	.	.	.
!!LO:LB:g=original
=40	=40	=40	=40	=40	=40	=40	=40	=40	=40	=40	=40	=40	=40
4.G 4.GG/	4.g/	4.GG/	.	.	4.G/	-cel-	.	2.ryy	.	2.ryy	.	2.ryy	.
4.c 4.C\	4.cc\	4.C/	.	.	4.c\	-sis	.	.	.	.	.	.	.
=41	=41	=41	=41	=41	=41	=41	=41	=41	=41	=41	=41	=41	=41
8FL 8FF/	8f/L	(>8FF/L	.	.	(8F/L	De-	.	2.ryy	.	2.ryy	.	2.ryy	.
8G 8GG/	8g/	8GG/	.	.	8G/	.	.	.	.	.	.	.	.
8A-J 8AA-/	8a-/J	8AA-/J)	.	.	8A-/J	.	.	.	.	.	.	.	.
4.B- 4.BB-\	4.b-/	4.BB-/	.	.	4.B-\)	.	.	.	.	.	.	.	.
=42	=42	=42	=42	=42	=42	=42	=42	=42	=42	=42	=42	=42	=42
4E- 4EE-/	4e-/	4E-\	.	.	4E-/	-o	.	2.ryy	.	2.ryy	.	2.ryy	.
8r	8r	8r	.	.	8r	.	.	.	.	.	.	.	.
4.E- 4.AA-/	4.cc 4.a- 4.e-/	4.A- 4.AA-\	.	.	4.c 4.A-\	A-	.	.	.	.	.	.	.
=43	=43	=43	=43	=43	=43	=43	=43	=43	=43	=43	=43	=43	=43
4E- 4EE-/	4ee- 4g 4e-\	4E-\	.	.	4e- 4G\	-men	.	2.ryy	.	2.ryy	.	2.ryy	.
8r	8r	8r	.	.	8r	.	.	.	.	.	.	.	.
4.E- 4.AA-/	4.cc 4.a- 4.e-/	([4.A- [>4.AA-\	.	.	([4.c [4.A-\	A-	.	.	.	.	.	.	.
=44	=44	=44	=44	=44	=44	=44	=44	=44	=44	=44	=44	=44	=44
*^	*^	*^	*	*	*^	*	*	*	*	*	*	*	*
2.E-/	4.AA-\	4.cc/	2.a- 2.e-\	4.A-] 4.AA-\]	4.ryy	.	.	4.c/]	2.A-\]	.	.	2.ryy	.	2.ryy	.	2.ryy	.
.	4.C\	4.ee-/	.	4.C/)	4.C\	.	.	4.e-/)	.	.	.	.	.	.	.	.	.
*v	*v	*	*	*v	*v	*	*	*v	*v	*	*	*	*	*	*	*	*
*	*v	*v	*	*	*	*	*	*	*	*	*	*	*	*
=45	=45	=45	=45	=45	=45	=45	=45	=45	=45	=45	=45	=45	=45
2.E- 2.EE-;/	2.b- 2.g 2.e-;/	2.E-;\	.	.	2.B- 2.G;/	-men	.	2.ryy	.	2.ryy	.	2.ryy	.
==	==	==	==	==	==	==	==	==	==	==	==	==	==
*-	*-	*-	*-	*-	*-	*-	*-	*-	*-	*-	*-	*-	*-
!!!system-decoration: {g1}{g2}{(g3)}
!!!RDF**kern: > = above
!!!RDF**kern: < = below
!!!ENC: Andrzej Gręziak
!!!END: 2021-08-13
!!!ENC: Kamil Watkowski
!!!END: 2021-09-09
